packages/components/icon/src/assets/icons/sync.svg

<svg width="24" height="24" viewBox="0 0 24 24" fill="none" xmlns="http://www.w3.org/2000/svg">
<path fill-rule="evenodd" clip-rule="evenodd" d="M12.1053 5.6C10.3905 5.6 8.80842 6.2968 7.64553 7.4808L9.73684 9.6H5V4.8L6.53 6.3504C7.98342 4.8712 9.96184 4 12.1053 4C16.4584 4 20 7.588 20 12H18.4211C18.4211 8.4712 15.5876 5.6 12.1053 5.6ZM11.8947 18.4C13.6103 18.4 15.1916 17.7032 16.3545 16.5192L14.2632 14.4H19V19.2L17.47 17.6496C16.0166 19.1288 14.0389 20 11.8947 20C7.54158 20 4 16.412 4 12H5.57895C5.57895 15.5288 8.41237 18.4 11.8947 18.4Z" fill="currentColor"/>
</svg>

<svg viewBox="0 0 24 24" fill="none" xmlns="http://www.w3.org/2000/svg"><path fill-rule="evenodd" clip-rule="evenodd" d="M12.105 5.6a6.226 6.226 0 0 0-4.46 1.88L9.738 9.6H5V4.8l1.53 1.55A7.787 7.787 0 0 1 12.105 4C16.458 4 20 7.588 20 12h-1.579c0-3.529-2.833-6.4-6.316-6.4Zm-.21 12.8a6.225 6.225 0 0 0 4.46-1.88l-2.092-2.12H19v4.8l-1.53-1.55A7.786 7.786 0 0 1 11.895 20C7.542 20 4 16.412 4 12h1.579c0 3.529 2.833 6.4 6.316 6.4Z" fill="currentColor"/></svg>
